X: 165
T: No_26_Cypress_Swamp_Hunting_Dance_Song_(a).krn
N: Derived from No_26_Cypress_Swamp_Hunting_Dance_Song_(a).krn
%%abc-version 2.0
%%abcx-abcm2ps-target-version 5.9.1 (29 Sep 2008)
%%abc-creator hum2abc beta
%%abcx-conversion-date 2019/03/15 08:38:45
%%humdrum-veritas 2749753528
%%humdrum-veritas-data 3625603048
%%linebreak <none>
%%barnumbers 0
L: 1/4
M: 3/4
K: F clef=bass
[K:clef=bass][M:3/4]z2F, ]|:  
CC(C3//A,//) ||  
[M:2/4]A,3/F,/ ||  
[M:3/4]A,A,/ z/C | 
A,A,G, ||  
[M:2/4]F,2 ||  
[M:3/4]F,F,G,/F,/ | 
A,(A,G,) | 
F,3/D,/F, | 
F,zD,3//D,// ||  
[M:2/4]F,2 | 
F,3/D,/ ||  
[M:3/4]F,F,G,/F,/ | 
A,A,G, ||  
[M:2/4]F,2 | 
zF, :|]  
[M:3/4]F,2F, | 
F,3 | 
[M:2/4]C2 | 
CC



